X: 1
T: Shandon Bells
T: Cluig Sean-duin
B: O'Neill's
Z: John Chambers <jc:trillian.mit.edu>
R: jig
M: 6/8
L: 1/8
K: D
 B \
| "D"AFD DFA | ded cBA | "Em"BGE EFA | "A7"B2A Bcd \
| "D"AFD DFA | ded cBA | "G"Bcd "A7"ecA | "D"d3-d2 :|
|: g \
| "D"f2d ded | faa afd | "A7"cAA eAA | cBc efg \
| "D"f2d ded | faa afd | "G"Bcd "A7"ecA | "D"d3-d2 :|
